material/.icons/material/elevator-passenger.svg

<svg xmlns="http://www.w3.org/2000/svg" viewBox="0 0 24 24"><path d="M19 3H5c-1.1 0-2 .9-2 2v14c0 1.1.9 2 2 2h14c1.1 0 2-.9 2-2V5c0-1.1-.9-2-2-2M8 5c.8 0 1.5.7 1.5 1.5S8.8 8 8 8s-1.5-.7-1.5-1.5S7.2 5 8 5m3 9H9.5v5h-3v-5H5v-3c0-1.1.9-2 2-2h2c1.1 0 2 .9 2 2v3m4.9 5L13 14.2h5.8L15.9 19M13 10l3-5 3 5h-6z"/></svg>

<?xml version="1.0" encoding="UTF-8"?><!DOCTYPE svg PUBLIC "-//W3C//DTD SVG 1.1//EN" "http://www.w3.org/Graphics/SVG/1.1/DTD/svg11.dtd"><svg xmlns="http://www.w3.org/2000/svg" xmlns:xlink="http://www.w3.org/1999/xlink" version="1.1" id="mdi-elevator-passenger" width="24" height="24" viewBox="0 0 24 24"><path d="M19 3H5C3.9 3 3 3.9 3 5V19C3 20.1 3.9 21 5 21H19C20.1 21 21 20.1 21 19V5C21 3.9 20.1 3 19 3M8 5C8.8 5 9.5 5.7 9.5 6.5S8.8 8 8 8 6.5 7.3 6.5 6.5 7.2 5 8 5M11 14H9.5V19H6.5V14H5V11C5 9.9 5.9 9 7 9H9C10.1 9 11 9.9 11 11V14M15.9 19L13 14.2H18.8L15.9 19M13 10L16 5L19 10H13Z" /></svg>
